apps/pdfeditor/main/resources/img/toolbar/2.5x/btn-text-callout.svg

<svg width="20" height="20" viewBox="0 0 20 20" fill="none" xmlns="http://www.w3.org/2000/svg">
<path d="M8.99958 6.00015H14.9996V7.00015H8.99958V6.00015Z" fill="black"/>
<path d="M8.99958 9.00015H14.9996V10.0001H8.99958V9.00015Z" fill="black"/>
<path d="M8.99958 12.0001H11.9996V13.0001H8.99958V12.0001Z" fill="black"/>
<path fill-rule="evenodd" clip-rule="evenodd" d="M6.99958 3.00015H16.9996V17.0001H6.99958V12.0001H2.99959L2.99955 4.70767L1.85359 5.85363L1.14648 5.14652L3.49955 2.79346L5.85261 5.14652L5.14551 5.85363L3.99955 4.70768L3.99958 11.0001H6.99958V3.00015ZM15.9996 4.00015H7.99958V16.0001H15.9996V4.00015Z" fill="black"/>
<path fill-rule="evenodd" clip-rule="evenodd" d="M8.99958 6.00015H14.9996V7.00015H8.99958V6.00015ZM8.99958 9.00015H14.9996V10.0001H8.99958V9.00015ZM8.99958 12.0001H11.9996V13.0001H8.99958V12.0001Z" fill="black"/>
</svg>

<svg xmlns="http://www.w3.org/2000/svg" width="20" height="20" fill="none"><path fill="#000" d="M12 13H9v-1h3v1Zm3-3H9V9h6v1Zm0-3H9V6h6v1Z"/><path fill="#000" d="m5.853 5.146-.707.708L4 4.708V11h3V3h10v14H7v-5H3V4.708L1.854 5.854l-.708-.708L3.5 2.793l2.353 2.353ZM8 16h8V4H8v12Z"/></svg>
